Newaita/actions/22/stroke-join-bevel.svg

<?xml version="1.0" encoding="UTF-8"?>
<svg xmlns="http://www.w3.org/2000/svg" xmlns:xlink="http://www.w3.org/1999/xlink" width="22pt" height="22pt" viewBox="0 0 22 22" version="1.1">
<g id="surface1">
<path style=" stroke:none;fill-rule:nonzero;fill:rgb(25.882354%,25.882354%,25.882354%);fill-opacity:1;" d="M 10.003906 9.269531 L 10.003906 21.09375 L 15.464844 21.09375 L 15.464844 14.726562 L 19.101562 14.726562 L 19.101562 9.269531 Z M 11.371094 10.632812 L 17.738281 10.632812 L 17.738281 13.359375 L 14.097656 13.359375 L 14.097656 19.726562 L 11.371094 19.726562 Z M 11.371094 10.632812 "/>
<path style=" stroke:none;fill-rule:evenodd;fill:rgb(25.882354%,25.882354%,25.882354%);fill-opacity:1;" d="M 9.097656 1.082031 L 2.730469 5.628906 L 2.730469 21.09375 L 8.1875 21.09375 L 8.1875 9.269531 L 11.824219 6.539062 L 18.191406 6.539062 L 18.191406 1.082031 Z M 9.535156 2.464844 L 16.828125 2.464844 L 16.828125 5.15625 L 10.476562 5.15625 L 6.800781 8.09375 L 6.800781 19.726562 L 4.113281 19.726562 L 4.113281 6.800781 Z M 9.535156 2.464844 "/>
</g>
</svg>

<svg xmlns="http://www.w3.org/2000/svg" width="22pt" height="22pt" viewBox="0 0 22 22"><g fill="#424242"><path d="M10.004 9.27v11.824h5.46v-6.367h3.638V9.27zm1.367 1.363h6.367v2.726h-3.64v6.368H11.37zm0 0"/><path d="M9.098 1.082L2.73 5.629v15.465h5.458V9.27l3.636-2.73h6.367V1.081zm.437 1.383h7.293v2.691h-6.351L6.8 8.094v11.633H4.113V6.8zm0 0" fill-rule="evenodd"/></g></svg>
